X:147
T: ANDRES, LIEBER SCHUTZPATRON
N: Z0146
O: Europa, Mitteleuropa, Deutschland, Pommern
R: Erzaehlung, lustige Romanze, Frage- Antwort - Lied, Echo, Tod
M: 3/4
L: 1/16
K: F
 | F2A2c2A2F2f2 | f4e4
e2f2 | g4B4BdcB | B4A4
BAGF | d4c4BAGF | F4E4
C2E2 | G2E2C2E2G2B2 | B4A4
BAGF | d4c4d2g2 | f6edc4
G12A2B2 | A12z4

